X:958
T:Leezie Lindsay
C:Joe Buchanan's Scottish Tome - Page 558.4
I:558 4
Z:Carl Allison
R:Waltz
L:1/4
M:3/4
K:D
F/E/ | "D"(D>E) (F/G/) | "D"(A F) E/D/ | "Bm"E F2- | "Bm"F F/E/ | "D"(D>E) (F/G/) | "D7"(A F) A | "G"B3- | B (c d) |
"D"(D>E) (F/G/) | "A/C#"(A F) (E/D/) | "Bm"E F2- | "D7"F2 A | "G"(B d B) | "A7"(A F) E | "D"D3 | "D"D2 :|

